source/img/services/services-nav/contekst-icon-active.svg

<svg width="32" height="32" viewBox="0 0 32 32" fill="none" xmlns="http://www.w3.org/2000/svg">
<path d="M3.01465 24.4859L6.56697 17.0868C7.95536 16.8247 8.31395 17.0198 8.79618 17.4921L5.14205 24.9904L3.01465 24.4859Z" fill="url(#paint0_linear)"/>
<path d="M15.8894 16.0734C18.9698 12.3445 22.7121 13.4389 24.1983 14.4522L26.2248 12.0203C23.5903 9.92619 17.3485 7.48079 13.4575 14.4522L15.8894 16.0734Z" fill="url(#paint1_linear)"/>
<path fill-rule="evenodd" clip-rule="evenodd" d="M7.11768 5.33452C8.89124 4.64471 10.9234 4.60183 12.309 4.77033C12.6539 4.81227 12.8951 5.10575 12.8951 5.43462V24.3929C12.8951 24.764 12.5937 25.0649 12.222 25.0649H10.6515C10.2798 25.0649 9.97843 24.764 9.97843 24.3929V17.8966H9.47052L6.067 24.6934C5.95299 24.9211 5.71994 25.0649 5.46501 25.0649H3.29168C2.77925 25.0649 2.45479 24.5159 2.70251 24.068L6.43408 17.3213C5.24766 16.6842 3.73138 15.0944 3.44358 12.2292L4.33649 12.1398C4.63075 15.0693 6.33203 16.3803 7.21138 16.6901L7.71092 16.8662L3.67186 24.1689H5.32635L8.91591 17.0006H10.8758V24.1689H11.9977V5.63731C10.7166 5.50891 8.95409 5.58187 7.4434 6.16944C5.87394 6.77986 4.60605 7.92659 4.36693 9.99583L3.47545 9.89312C3.76194 7.414 5.32145 6.03314 7.11768 5.33452ZM10.1373 6.27212C10.5321 6.23123 10.8758 6.54197 10.8758 6.93724V15.5838C10.8758 15.9006 10.6501 16.1902 10.3154 16.243C9.68331 16.3428 8.83516 16.3666 8.00158 16.0064C7.15275 15.6397 6.376 14.8993 5.85886 13.5798L5.85243 13.5634L5.84732 13.5465C5.51805 12.4623 5.32552 10.8029 5.84764 9.32515C6.11168 8.57786 6.56073 7.87228 7.26917 7.32235C7.97729 6.77265 8.91903 6.39826 10.1373 6.27212ZM9.97843 7.19394C9.02663 7.32751 8.32942 7.63427 7.81996 8.02974C7.26698 8.459 6.90968 9.01258 6.69391 9.62325C6.25896 10.8543 6.40879 12.2966 6.701 13.2696C7.14197 14.3848 7.75885 14.9252 8.35798 15.1841C8.90241 15.4194 9.47763 15.4416 9.97843 15.3847V7.19394Z" fill="#0A3D76"/>
<path fill-rule="evenodd" clip-rule="evenodd" d="M14.1579 14.5134C14.0647 14.4431 14.0408 14.3131 14.1058 14.2163C15.5154 12.1166 17.9129 10.7359 20.633 10.7359C22.2342 10.7359 23.8758 11.3203 25.1822 12.1926C25.2895 12.2642 25.31 12.4121 25.2292 12.5126L23.9678 14.0838C23.8924 14.1777 23.7565 14.1949 23.6568 14.1272C22.7949 13.5421 21.7536 13.1999 20.633 13.1999C18.7326 13.1999 17.0628 14.1831 16.105 15.666C16.032 15.7789 15.8781 15.8103 15.7706 15.7293L14.1579 14.5134ZM13.7815 15.3524C13.667 15.2661 13.5017 15.3077 13.4478 15.4405C13.0632 16.3881 12.893 17.4455 12.893 18.5761C12.893 19.5772 13.011 20.5141 13.3063 21.3661C13.3559 21.5092 13.5328 21.5542 13.6498 21.458L15.3246 20.0802C15.3927 20.0242 15.4211 19.9336 15.4003 19.8481C15.3011 19.4399 15.2486 19.0139 15.2486 18.5761C15.2486 17.9791 15.3462 17.4043 15.5266 16.8669C15.558 16.7732 15.5279 16.6691 15.4489 16.6095L13.7815 15.3524ZM13.9672 22.3578C13.8827 22.4274 13.8605 22.5478 13.9173 22.6413C15.295 24.9052 17.7876 26.4163 20.633 26.4163C22.4666 26.4163 24.1528 25.7892 25.4892 24.7375C25.6023 24.6485 25.5972 24.4776 25.482 24.3913L23.7857 23.1206C23.709 23.0631 23.6044 23.0611 23.5236 23.1125C22.6884 23.6441 21.6963 23.9522 20.633 23.9522C18.5214 23.9522 16.6946 22.7386 15.8126 20.9738C15.7884 20.9255 15.7254 20.9114 15.6836 20.9458L13.9672 22.3578ZM26.2052 23.8129C26.2967 23.8814 26.4256 23.8704 26.5017 23.785C27.2343 22.9628 27.7959 21.986 28.1314 20.9102C28.1682 20.792 28.2917 20.7224 28.411 20.7557L28.8431 20.8766C28.9624 20.9099 29.0323 21.0337 28.9959 21.1519C28.5422 22.6221 27.7107 23.926 26.6154 24.9511C25.0512 26.4152 22.9465 27.3123 20.633 27.3123C17.2022 27.3123 14.2334 25.3406 12.7997 22.4723C12.2023 21.277 11.9956 19.9466 11.9956 18.5761C11.9956 17.0104 12.2985 15.5122 13.0542 14.2076C14.5664 11.5975 17.3938 9.83984 20.633 9.83984C22.7839 9.83984 24.9531 10.7663 26.4811 12.0462C26.5761 12.1257 26.5845 12.2674 26.5024 12.3601L26.4959 12.3675L24.2512 15.1633L24.104 15.3467C24.0238 15.4466 23.8763 15.4592 23.7803 15.3744L23.6039 15.2187C22.8123 14.5197 21.7727 14.096 20.633 14.096C18.9727 14.096 17.5225 14.9961 16.746 16.3364C16.6697 16.468 16.6 16.6039 16.5372 16.7435C16.286 17.3023 16.146 17.9223 16.146 18.5761C16.146 19.0752 16.2276 19.5544 16.3778 20.0017C16.444 20.1988 16.5236 20.3898 16.6155 20.5737C17.3516 22.0463 18.8746 23.0562 20.633 23.0562C21.6712 23.0562 22.6259 22.7047 23.3861 22.114C23.4951 22.0293 23.6001 21.9397 23.7008 21.8454C24.0733 21.4968 24.4224 20.9868 24.6845 20.4507C24.7547 20.3069 24.6467 20.1441 24.4865 20.1441H21.0817H20.5208H20.4086C20.2847 20.1441 20.1843 20.0438 20.1843 19.9201V16.784V16.56C20.1843 16.4363 20.2847 16.336 20.4086 16.336H20.633H28.7393H28.9195C29.0248 16.336 29.116 16.4091 29.1386 16.5118L29.1774 16.6876C29.3118 17.2962 29.3825 17.9281 29.3825 18.5761C29.3825 18.6195 29.3822 18.6628 29.3815 18.706C29.3797 18.8297 29.2751 18.926 29.1513 18.921L28.7029 18.9032C28.5791 18.8983 28.4831 18.794 28.4846 18.6703C28.4849 18.639 28.4851 18.6076 28.4851 18.5761C28.4851 18.1825 28.4561 17.7959 28.4002 17.4183C28.3842 17.3105 28.2905 17.2321 28.1813 17.2321H21.306C21.1821 17.2321 21.0817 17.3323 21.0817 17.4561V19.0241C21.0817 19.1478 21.1821 19.2481 21.306 19.2481H25.4564H25.753C25.9018 19.2481 26.0094 19.3901 25.9689 19.5331L25.8882 19.8181C25.6533 20.6474 25.1615 21.5848 24.5557 22.2534C24.4635 22.3552 24.4739 22.5159 24.5839 22.5983L26.2052 23.8129Z" fill="#0A3D76"/>
<defs>
<linearGradient id="paint0_linear" x1="8.61796" y1="20.9799" x2="3.18452" y2="20.8958" gradientUnits="userSpaceOnUse">
<stop stop-color="#A62E41"/>
<stop offset="1" stop-color="#E13152"/>
</linearGradient>
<linearGradient id="paint1_linear" x1="25.8313" y1="12.955" x2="13.8529" y2="12.4285" gradientUnits="userSpaceOnUse">
<stop stop-color="#A62E41"/>
<stop offset="1" stop-color="#E13152"/>
</linearGradient>
</defs>
</svg>

<svg width="32" height="32" fill="none" xmlns="http://www.w3.org/2000/svg"><path d="M3.015 24.486l3.552-7.4c1.388-.261 1.747-.066 2.23.406L5.141 24.99l-2.127-.504z" fill="url(#paint0_linear)"/><path d="M15.89 16.073c3.08-3.729 6.822-2.634 8.308-1.62l2.027-2.433c-2.635-2.094-8.877-4.54-12.768 2.432l2.432 1.621z" fill="url(#paint1_linear)"/><path fill-rule="evenodd" clip-rule="evenodd" d="M7.118 5.335c1.773-.69 3.805-.733 5.191-.565a.667.667 0 01.586.665v18.958a.673.673 0 01-.673.672h-1.57a.673.673 0 01-.674-.672v-6.496h-.507l-3.404 6.796a.673.673 0 01-.602.372H3.292a.672.672 0 01-.59-.997l3.732-6.747c-1.186-.637-2.703-2.227-2.99-5.092l.892-.09c.295 2.93 1.996 4.241 2.875 4.551l.5.176-4.04 7.303h1.655L8.916 17h1.96v7.168h1.122V5.637c-1.281-.128-3.044-.055-4.555.532-1.57.61-2.837 1.758-3.076 3.827l-.892-.103c.287-2.479 1.846-3.86 3.643-4.558zm3.02.937a.67.67 0 01.738.665v8.647a.666.666 0 01-.56.659c-.633.1-1.48.124-2.314-.237-.85-.366-1.626-1.107-2.143-2.426l-.007-.017-.005-.017c-.329-1.084-.521-2.743 0-4.22A4.304 4.304 0 017.27 7.321c.708-.55 1.65-.924 2.868-1.05zm-.16.922c-.951.134-1.649.44-2.158.836a3.41 3.41 0 00-1.126 1.593c-.435 1.231-.285 2.674.007 3.647.441 1.115 1.058 1.655 1.657 1.914.544.235 1.12.258 1.62.2v-8.19z" fill="#0A3D76"/><path fill-rule="evenodd" clip-rule="evenodd" d="M14.158 14.513a.22.22 0 01-.052-.297 7.847 7.847 0 016.527-3.48c1.601 0 3.243.584 4.55 1.457.107.071.127.22.046.32l-1.261 1.57a.232.232 0 01-.311.044 5.367 5.367 0 00-3.024-.927c-1.9 0-3.57.983-4.528 2.466a.233.233 0 01-.334.063l-1.613-1.216zm-.377.84a.217.217 0 00-.333.088c-.385.947-.555 2.004-.555 3.135 0 1.001.118 1.938.413 2.79.05.143.227.188.344.092l1.675-1.378a.23.23 0 00.075-.232 5.38 5.38 0 01.127-2.981.23.23 0 00-.078-.258l-1.668-1.257zm.186 7.005a.22.22 0 00-.05.283 7.85 7.85 0 006.716 3.775c1.834 0 3.52-.627 4.856-1.678a.218.218 0 00-.007-.347l-1.696-1.27a.23.23 0 00-.262-.008 5.367 5.367 0 01-2.891.84 5.385 5.385 0 01-4.82-2.98.085.085 0 00-.13-.027l-1.716 1.412zm12.238 1.455a.22.22 0 00.297-.028 7.824 7.824 0 001.63-2.875.23.23 0 01.279-.154l.432.12a.22.22 0 01.153.276 8.736 8.736 0 01-2.38 3.8 8.727 8.727 0 01-5.983 2.36 8.75 8.75 0 01-7.833-4.84c-.598-1.195-.804-2.525-.804-3.896 0-1.566.303-3.064 1.058-4.368a8.749 8.749 0 017.579-4.368c2.15 0 4.32.926 5.848 2.206a.22.22 0 01.021.314l-.006.008-2.245 2.795-.147.184a.225.225 0 01-.324.027l-.176-.155a4.472 4.472 0 00-2.971-1.123 4.486 4.486 0 00-4.096 2.648 4.457 4.457 0 00-.391 1.832 4.47 4.47 0 00.47 1.998 4.488 4.488 0 004.017 2.482 4.47 4.47 0 003.068-1.21c.372-.35.721-.86.983-1.395a.214.214 0 00-.198-.307H20.41a.224.224 0 01-.225-.224v-3.36c0-.124.1-.224.225-.224h8.51c.106 0 .197.073.22.176l.038.176a8.75 8.75 0 01.204 2.018.22.22 0 01-.23.215l-.448-.018a.23.23 0 01-.218-.233v-.094c0-.393-.029-.78-.085-1.158a.22.22 0 00-.219-.186h-6.875c-.124 0-.224.1-.224.224v1.568c0 .124.1.224.224.224h4.447c.149 0 .256.142.216.285l-.08.285c-.236.83-.727 1.767-1.333 2.435a.235.235 0 00.028.345l1.621 1.215z" fill="#0A3D76"/><defs><linearGradient id="paint0_linear" x1="8.618" y1="20.98" x2="3.185" y2="20.896" gradientUnits="userSpaceOnUse"><stop stop-color="#A62E41"/><stop offset="1" stop-color="#E13152"/></linearGradient><linearGradient id="paint1_linear" x1="25.831" y1="12.955" x2="13.853" y2="12.428" gradientUnits="userSpaceOnUse"><stop stop-color="#A62E41"/><stop offset="1" stop-color="#E13152"/></linearGradient></defs></svg>
